src/cui/assets/icons/alert-triangle.svg

<svg width="24" height="25" viewBox="0 0 24 25" fill="none" xmlns="http://www.w3.org/2000/svg">
<path fill-rule="evenodd" clip-rule="evenodd" d="M14.8887 4.084L22.5607 16.803C23.1297 17.746 23.1467 18.88 22.6067 19.836C22.0267 20.863 20.9027 21.5 19.6717 21.5H4.3277C3.0977 21.5 1.9727 20.863 1.3937 19.836C0.853699 18.88 0.870699 17.746 1.4397 16.803L9.1117 4.084C9.7097 3.092 10.7897 2.5 11.9997 2.5C13.2097 2.5 14.2897 3.092 14.8887 4.084ZM20.8647 18.853C20.6357 19.258 20.1897 19.5 19.6717 19.5H4.3277C3.8097 19.5 3.3637 19.258 3.1357 18.853C3.0277 18.663 2.8857 18.276 3.1527 17.836L10.8237 5.118C11.2907 4.344 12.7087 4.344 13.1757 5.118L20.8477 17.836C21.1137 18.276 20.9727 18.663 20.8647 18.853ZM11 9.5C11 8.948 11.448 8.5 12 8.5C12.552 8.5 13 8.948 13 9.5V13.5C13 14.052 12.552 14.5 12 14.5C11.448 14.5 11 14.052 11 13.5V9.5ZM11 16.5C11 15.948 11.448 15.5 12 15.5C12.552 15.5 13 15.948 13 16.5C13 17.052 12.552 17.5 12 17.5C11.448 17.5 11 17.052 11 16.5Z" fill="#FFB81C"/>
<mask id="mask0_3783_9247" style="mask-type:alpha" maskUnits="userSpaceOnUse" x="1" y="2" width="22" height="20">
<path fill-rule="evenodd" clip-rule="evenodd" d="M14.8887 4.084L22.5607 16.803C23.1297 17.746 23.1467 18.88 22.6067 19.836C22.0267 20.863 20.9027 21.5 19.6717 21.5H4.3277C3.0977 21.5 1.9727 20.863 1.3937 19.836C0.853699 18.88 0.870699 17.746 1.4397 16.803L9.1117 4.084C9.7097 3.092 10.7897 2.5 11.9997 2.5C13.2097 2.5 14.2897 3.092 14.8887 4.084ZM20.8647 18.853C20.6357 19.258 20.1897 19.5 19.6717 19.5H4.3277C3.8097 19.5 3.3637 19.258 3.1357 18.853C3.0277 18.663 2.8857 18.276 3.1527 17.836L10.8237 5.118C11.2907 4.344 12.7087 4.344 13.1757 5.118L20.8477 17.836C21.1137 18.276 20.9727 18.663 20.8647 18.853ZM11 9.5C11 8.948 11.448 8.5 12 8.5C12.552 8.5 13 8.948 13 9.5V13.5C13 14.052 12.552 14.5 12 14.5C11.448 14.5 11 14.052 11 13.5V9.5ZM11 16.5C11 15.948 11.448 15.5 12 15.5C12.552 15.5 13 15.948 13 16.5C13 17.052 12.552 17.5 12 17.5C11.448 17.5 11 17.052 11 16.5Z" fill="white"/>
</mask>
<g mask="url(#mask0_3783_9247)">
</g>
</svg>

<svg fill="none" height="25" viewBox="0 0 24 25" width="24" xmlns="http://www.w3.org/2000/svg"><mask height="20" maskUnits="userSpaceOnUse" width="22" x="1" y="2"><path clip-rule="evenodd" d="m14.8887 4.084 7.672 12.719c.569.943.586 2.077.046 3.033-.58 1.027-1.704 1.664-2.935 1.664h-15.344c-1.23 0-2.355-.637-2.934-1.664-.540001-.956-.523001-2.09.046-3.033l7.672-12.719c.598-.992 1.678-1.584 2.888-1.584s2.29.592 2.889 1.584zm5.976 14.769c-.229.405-.675.647-1.193.647h-15.344c-.518 0-.964-.242-1.192-.647-.108-.19-.25-.577.017-1.017l7.671-12.718c.467-.774 1.885-.774 2.352 0l7.672 12.718c.266.44.125.827.017 1.017zm-9.8647-9.353c0-.552.448-1 1-1s1 .448 1 1v4c0 .552-.448 1-1 1s-1-.448-1-1zm0 7c0-.552.448-1 1-1s1 .448 1 1-.448 1-1 1-1-.448-1-1z" fill="#fff" fill-rule="evenodd"/></mask><path clip-rule="evenodd" d="m14.8887 4.084 7.672 12.719c.569.943.586 2.077.046 3.033-.58 1.027-1.704 1.664-2.935 1.664h-15.344c-1.23 0-2.355-.637-2.934-1.664-.540001-.956-.523001-2.09.046-3.033l7.672-12.719c.598-.992 1.678-1.584 2.888-1.584s2.29.592 2.889 1.584zm5.976 14.769c-.229.405-.675.647-1.193.647h-15.344c-.518 0-.964-.242-1.192-.647-.108-.19-.25-.577.017-1.017l7.671-12.718c.467-.774 1.885-.774 2.352 0l7.672 12.718c.266.44.125.827.017 1.017zm-9.8647-9.353c0-.552.448-1 1-1s1 .448 1 1v4c0 .552-.448 1-1 1s-1-.448-1-1zm0 7c0-.552.448-1 1-1s1 .448 1 1-.448 1-1 1-1-.448-1-1z" fill="#ffb81c" fill-rule="evenodd"/></svg>
